public/icons/tools/sass.svg

<svg width="64" height="64" viewBox="0 0 64 64" fill="none" xmlns="http://www.w3.org/2000/svg">
<path d="M32.0007 5.3335C35.5026 5.3335 38.9702 6.02325 42.2055 7.36338C45.4409 8.7035 48.3806 10.6678 50.8568 13.144C53.3331 15.6202 55.2973 18.5599 56.6374 21.7953C57.9776 25.0306 58.6673 28.4982 58.6673 32.0002C58.6673 39.0726 55.8578 45.8554 50.8568 50.8563C45.8559 55.8573 39.0731 58.6668 32.0007 58.6668C28.4987 58.6668 25.0311 57.9771 21.7958 56.637C18.5604 55.2968 15.6207 53.3326 13.1445 50.8563C8.1435 45.8554 5.33398 39.0726 5.33398 32.0002C5.33398 24.9277 8.1435 18.145 13.1445 13.144C18.1454 8.14301 24.9282 5.3335 32.0007 5.3335ZM26.6673 40.8802C27.094 42.3202 27.0407 43.6535 26.6673 44.8802C26.6673 45.0135 26.5606 45.1468 26.5073 45.3335C26.454 45.3335 26.4007 45.5202 26.3207 45.6535C26.0273 46.2935 25.6007 46.9068 25.094 47.4402C23.5473 49.1468 21.334 49.7868 20.454 49.2535C19.4407 48.6668 20.0007 46.2668 21.7607 44.3735C23.6807 42.3468 26.454 41.0135 26.454 41.0135L26.6673 40.8802ZM48.7207 16.7468C47.5207 12.0002 39.654 10.4535 32.2407 13.0935C27.814 14.6668 23.014 17.1202 19.574 20.3468C15.494 24.1868 14.8273 27.5202 15.094 28.9068C16.0007 33.8135 22.774 37.0402 25.5473 39.4135V39.4402C24.7473 39.8402 18.774 42.8535 17.334 45.9468C15.894 49.2002 17.6007 51.5468 18.6673 51.8668C22.2407 52.8268 25.8407 51.0935 27.7607 48.1868C29.6273 45.4135 29.494 41.8135 28.6673 40.0002C29.7873 39.7335 31.094 39.6002 32.7473 39.7868C37.4407 40.3468 38.3473 43.2535 38.1607 44.4802C38.0007 45.7068 37.014 46.3735 36.694 46.5868C36.374 46.7735 36.2673 46.8535 36.294 47.0135C36.3207 47.2268 36.4807 47.2268 36.7473 47.1735C37.1473 47.0935 39.2273 46.1868 39.3073 43.9202C39.414 41.0402 36.6673 37.8402 31.814 37.9202C29.814 37.9735 28.5607 38.1602 27.654 38.5068L27.4407 38.2668C24.4273 35.0668 18.8807 32.8002 19.1207 28.4802C19.2007 26.9068 19.734 22.8002 29.7873 17.7868C38.0007 13.6802 44.5873 14.8002 45.734 17.3335C47.3607 20.8802 42.214 27.5202 33.6807 28.4802C30.4273 28.8535 28.694 27.5735 28.2673 27.1202C27.814 26.6668 27.7607 26.5868 27.6007 26.6668C27.3073 26.8535 27.494 27.2802 27.6007 27.5468C27.8407 28.2135 28.9073 29.3335 30.6673 29.9735C32.2407 30.4802 36.0807 30.7735 40.694 28.9868C45.8673 26.9868 49.9207 21.4135 48.7207 16.7468Z" fill="black"/>
</svg>

<svg width="64" height="64" fill="none" xmlns="http://www.w3.org/2000/svg"><path d="M32 5.333a26.666 26.666 0 110 53.333 26.666 26.666 0 010-53.332zM26.668 40.88c.427 1.44.374 2.773 0 4 0 .133-.106.267-.16.453-.053 0-.106.187-.186.32a6.673 6.673 0 01-1.227 1.787c-1.547 1.707-3.76 2.347-4.64 1.814-1.013-.587-.453-2.987 1.307-4.88 1.92-2.027 4.693-3.36 4.693-3.36l.213-.134zm22.054-24.133c-1.2-4.747-9.067-6.293-16.48-3.653-4.427 1.573-9.227 4.026-12.667 7.253-4.08 3.84-4.747 7.173-4.48 8.56.907 4.906 7.68 8.133 10.453 10.506v.027c-.8.4-6.773 3.413-8.213 6.507-1.44 3.253.267 5.6 1.333 5.92 3.574.96 7.174-.773 9.094-3.68 1.866-2.773 1.733-6.373.906-8.187 1.12-.267 2.427-.4 4.08-.213 4.694.56 5.6 3.467 5.414 4.693-.16 1.227-1.147 1.894-1.467 2.107-.32.186-.427.266-.4.426.027.214.187.214.453.16.4-.08 2.48-.986 2.56-3.253.107-2.88-2.64-6.08-7.493-6-2 .053-3.253.24-4.16.587l-.213-.24c-3.014-3.2-8.56-5.467-8.32-9.787.08-1.573.613-5.68 10.666-10.693 8.214-4.107 14.8-2.987 15.947-.453 1.627 3.546-3.52 10.186-12.053 11.146-3.254.373-4.987-.907-5.414-1.36-.453-.453-.506-.533-.666-.453-.294.186-.107.613 0 .88.24.666 1.306 1.787 3.066 2.427 1.574.506 5.414.8 10.027-.987 5.173-2 9.227-7.573 8.027-12.24z" fill="#000"/></svg>
